X:181
T:Chatsworth THO4.181
M:6/8
L:1/8
Z:vmp. Peter Dunk 2010/11.from a transcription by Fynn Titford-Mock 2007
B:Thompson's Compleat Collection of 200 Favourite Country Dances Volume IV.
Q:3/8=100
K:G
G3 dBd|gbg faf|cec BdB|AcA FED|G3 dBd|gbg faf|dgd cec|BdB G3:|
d3 gbg|(f/g/a)f ege|(c/d/e)c BdB|(e/f/g)e def|\
d3 gbg|(f/g/a)f ege|(c/d/e)c (B/c/d)B|(f/g/a)f g2 G:|
